X: 4
T: Here Comes the Sun (3:09) - Flute
C: The Beatles
Z: Digero of Landroval
M: 4/4
Q: 127
K: C maj

% Bar 1
z8  |  z8  |  z8  |  z8  |  z2 +mf+ c ^G +mp+ ^A +mf+ c2 G-  |  
^G2 c ^A2 +mp+ [G2z3/2] +p+ F3/2-  |  F +mp+ c2 ^A2 +mf+ [^G2z3/2] =G3/2-  |  G8  |  z8  |  
z8  |  
% Bar 11
z8  |  z8  |  z8  |  z8  |  z8  |  z8  |  z8  |  z8  |  z8  |  z8  |  
% Bar 21
z8  |  z8  |  z8  |  z8  |  z8  |  z8  |  z8  |  z8  |  z8  |  z8  |  
% Bar 31
z8  |  z8  |  z2 +p+ c ^G ^A +mp+ c2 G-  |  ^G2 c +p+ [^A2z3/2] [G5/2z2] +mp+ F3/2-  |  
[Fz/] ^G5/2 +p+ ^A2 +mp+ G2 +mf+ F  |  +mp+ G +mf+ F +mp+ G ^G5/2 ^A5/2-  |  
^A/ z3/2 +p+ c +mp+ ^G +p+ A +mp+ c3/2 +p+ G3/2-  |  
^G2 +mp+ c +p+ ^A2 +mp+ G2 +mf+ F-  |  F +mp+ c2 +p+ ^A2 ^G2 +mp+ =G-  |  G8  |  
% Bar 41
z8  |  z8  |  z8  |  z8  |  z8  |  F3 +p+ ^D5/2 ^C5/2-  |  ^C +mp+ ^D3 +p+ [^G3/2z] =G +mf+ F D  |  
z8  |  z8  |  z8  |  
% Bar 51
z8  |  z8  |  z8  |  z8  |  z8  |  z8  |  z8  |  z8  |  z8  |  z8  |  
% Bar 61
z8  |  z4 +p+ [^D,3/2z] +mp+ G, +mf+ ^A, +mp+ B,-  |  
+p+ [B,/^D] z/ +mp+ ^F ^F, +mf+ ^A, ^C =F, +mp+ ^G, C  |  ^C, +mf+ F, +mp+ ^G,6-  |  
^G,3/2 z9/2 +p+ [^D3/2z] +mp+ G  |  
+mf+ ^A +mp+ [B3/2z] +p+ ^d +mp+ ^f ^F +mf+ A ^c =F  |  
+mp+ ^G ^c ^C +mf+ F +mp+ G4-  |  ^G7/2 z/ [=G4-^D4-]  |  
[^DG3/2] +p+ [DF] +mp+ [GD/] z/ +p+ [D5-^G5-]  |  
[^D/^G] z/ +mp+ [=GD/] z/ +p+ [D/^G] z/ [D5-^A5-]  |  
% Bar 71
[^D^A] +mp+ [D/^G] z/ +p+ [AD/] z/ +mp+ [D5-^c5-]  |  [^D7/2^c2] z3/2 =c9/2  |  
+p+ ^A +mp+ c2 ^d5-  |  ^d f3 +p+ c4  |  +pp+ ^A +mp+ ^G3 =G +p+ F +mp+ G ^G-  |  
^G ^A5/2 z/ c4  |  +p+ ^A c2 +mp+ ^d5-  |  ^d +p+ f3 c4  |  
+pp+ ^A +mp+ ^G3 =G +p+ F +mp+ G ^G-  |  ^G +p+ ^A2 z +mp+ G4-  |  
% Bar 81
^G8-  |  ^G7/2 z/ +p+ G4-  |  ^G4 +mp+ G3 =G-  |  [G2z3/2] +p+ F5/2 +mp+ ^D4-  |  
^D7/2 z/ F3 +p+ D-  |  ^D2 +mp+ ^C3 +p+ D3-  |  [^Dz/] +ppp+ ^G,3/2 +mp+ D2 c4  |  
+p+ ^A +mp+ c2 ^d5-  |  ^d +p+ f3 +mf+ c4  |  
+p+ ^A +mf+ c5/2 z/ +mp+ [^G7/2z3] +mf+ =G-  |  
% Bar 91
G2 +p+ F2 +mp+ ^D4-  |  ^D7/2 z/ ^G3 +mf+ =G-  |  G2 +mp+ F3 ^D3  |  
+p+ [^A,2z3/2] +mf+ ^D2 z/ +mp+ ^G4-  |  ^G7/2 z/ G3 +mf+ =G-  |  G2 +mp+ F3 +p+ ^D3  |  
^A,2 ^D2 +mp+ ^G,4-  |  ^G,8-  |  ^G,8-  |  ^G,7/2 z9/2  |  z8  |]

